X: 20356
T: John Carmichael's Farewell To Scotland
R: barndance
M: 4/4
K: Dmajor
d>B|A>AA>B d2 d>B|A>Bd>e f>ed>c|B>BB>d e2 B>d|e>de>f g>ec<e|
A>AA>B d2 d>B|A>Bd>e f>ed>c|B>AG>B c>Ac<a|f2 d2 d2:|
d>e|f>dd>e f3 e|d>dd>e g>fe>d|c>AA>c e2 A>c|e>ce>f g>ec<e|
f>dd>e f3 e|d>dd>e g>fe>d|B>AG>B c>Ac<a|f2 d2 d2:|
d>B|A>AA>B d>AA>B|d>Ad>e f>ed>c|B>BB>d e>BB>d|e>de>f g>ec<e|
A>AA>B d>AA>B|d>Ad>e f>ed>c|B>AG>B c>Ac<a|f2 d2 d2:|
f>g|a>ff>g f>dd>a|a>ff>d g>fe>d|c>AA>c e>cc>g|g>ee>f g>ec<A|
a>ff>g f>dd>a|a>ff>d g>fe>d|B>AG>B c>Ac<a|f2 d2 d2:|

